X:1
T:Belén, 76.76.76 D
T:Belén, 76.76.76 D
T:Louis Le Saint, 1920
T:Public Domain Courtesy of the Cyber Hymnal™
C:Louis Le Saint, 1920
Z:Public Domain
Z:Courtesy of the Cyber Hymnal™
%%score ( 1 2 ) ( 3 4 )
L:1/8
Q:1/4=110
M:2/2
K:Bb
V:1 treble 
V:2 treble 
V:3 bass 
V:4 bass 
V:1
 F2 | [DB]2 [DB]2 [EB]2 [FB]2 | [GB]4 [FA]2 [EG]2 | [DF]2 [EG]2 [DF]2 [CE]2 | [B,D]6 F2 | %5
 [DB]2 [DB]2 [GB]2 [GB]2 | [FB]4 [Fc]2 [Fd]2 | [Fc]2 [FA]2 [=EA]2 [EG]2 | F6 F2 | %9
 [=EG]2 [EG]2 [_EA]2 [EA]2 | [FB]4 [DF]2 [FG]2 | [FA]2 [FA]2 [FB]2 [FB]2 | [Fc]6 F2 | %13
 [=EG]2 [EG]2 [_EA]2 [EA]2 | [FB]4 [Fc]2 [Fd]2 | [Fe]2 [Fe]2 [Fd]2 [Fd]2 | [Fc]6 F2 | %17
 [DB]2 [DB]2 [EB]2 [FB]2 | [GB]4 [FA]2 [EG]2 | [DF]2 [EG]2 [DF]2 [CE]2 | [B,D]6 [DF]2 | %21
 [FB]2 [FB]2 [Fc]2 [Fd]2 | [Fe]4 [Fd]2 [Gc]2 | [FB] [Fd]3 [Ed] [Ec]3 | [DB]6 |] %25
V:2
 F2 | x8 | x8 | x8 | x6 F2 | x8 | x8 | x8 | F6 F2 | x8 | x8 | x8 | x6 F2 | x8 | x8 | x8 | x6 F2 | %17
 x8 | x8 | x8 | x8 | x8 | x8 | x8 | x6 |] %25
V:3
 F,2 | [B,,F,]2 [B,,F,]2 [C,F,]2 [D,B,]2 | [E,B,]4 [E,B,]2 [E,B,]2 | [F,B,]2 F,2 [F,G,]2 [F,A,]2 | %4
 [B,,B,]6 F,2 | [B,,F,]2 [B,,B,]2 [E,B,]2 [E,B,]2 | [D,B,]4 [C,A,]2 [B,,B,]2 | %7
 [C,A,]2 [C,C]2 [C,C]2 [C,B,]2 | [F,A,]6 [F,A,]2 | [F,B,]2 [F,B,]2 [F,C]2 [F,C]2 | %10
 [F,D]4 [F,B,]2 [F,B,]2 | [F,C]2 [F,C]2 [F,G,]2 [F,G,]2 | [F,A,]6 [F,A,]2 | %13
 [F,B,]2 [F,B,]2 [F,C]2 [F,C]2 | [F,D]4 [F,A,]2 [F,B,]2 | [F,C]2 [F,C]2 [F,B,]2 [F,B,]2 | %16
 [F,A,]6 F,2 | [B,,F,]2 [B,,F,]2 [C,F,]2 [D,B,]2 | [E,B,]4 [E,B,]2 [E,B,]2 | %19
 [F,B,]2 F,2 [F,G,]2 [F,A,]2 | [B,,B,]6 [B,,B,]2 | [D,B,]2 [D,B,]2 [C,A,]2 [B,,B,]2 | %22
 [A,,C]4 [B,,B,]2 [E,E]2 | [F,D] [F,B,]3 [F,A,] [F,A,]3 | [B,,F,]6 |] %25
V:4
 F,2 | x8 | x8 | x2 F,2 x4 | x6 F,2 | x8 | x8 | x8 | x8 | x8 | x8 | x8 | x8 | x8 | x8 | x8 | %16
 x6 F,2 | x8 | x8 | x2 F,2 x4 | x8 | x8 | x8 | x8 | x6 |] %25

